X: 3817
T: Black Cat, The
R: jig
M: 6/8
K: Dminor
|:d2A DEF|ABA E2F|~G3 GFE|A,^CE GFE|
DdA DEF|ABA E2F|~G3 A,^CE|GFE D2A:|
|:d2e fgf|e^cA A^ce|~g3 gfe|gba gfe|d2e fgf|ea^g a3|
[1 A^ce A^ce|gfe d2A:|2 abb bag|gaa agf|A^ce A^ce|gfe d2A||

